static/img/pages/getQuestdb/macos.svg

<svg
  fill="none"
  height="49"
  viewBox="0 0 41 49"
  xmlns="http://www.w3.org/2000/svg"
>
  <path
    d="M40.5025 36.0026C39.4183 38.4037 38.9007 39.4754 37.5045 41.5968C35.5594 44.5593 32.815 48.2491 29.4142 48.2804C26.3933 48.3086 25.6169 46.3145 21.516 46.3385C17.415 46.3625 16.5604 48.3159 13.5395 48.2878C10.1387 48.2575 7.54037 44.9256 5.5932 41.961C0.150298 33.6756 -0.41841 23.9533 2.93853 18.7848C5.32398 15.1096 9.08893 12.9621 12.6274 12.9621C16.2306 12.9621 18.4961 14.9375 21.4763 14.9375C24.3668 14.9375 26.1272 12.959 30.2939 12.959C33.4432 12.959 36.7803 14.6735 39.1584 17.636C31.3666 21.9049 32.6334 33.0276 40.5025 36.0026Z"
    fill="#F35183"
  />
  <path
    d="M27.5724 7.77503C29.0865 5.83203 30.2343 3.09075 29.8169 0.286865C27.3438 0.455912 24.4533 2.02951 22.765 4.07999C21.2321 5.94055 19.9663 8.70061 20.4588 11.3835C23.1563 11.468 25.9497 9.85577 27.5724 7.77503Z"
    fill="#F35183"
  />
</svg>

<svg fill="none" height="49" viewBox="0 0 41 49" xmlns="http://www.w3.org/2000/svg"><path d="M40.502 36.003c-1.084 2.4-1.601 3.472-2.998 5.594-1.945 2.962-4.689 6.652-8.09 6.683-3.02.029-3.797-1.965-7.898-1.941-4.101.023-4.956 1.977-7.976 1.949-3.401-.03-6-3.362-7.947-6.327C.15 33.676-.418 23.953 2.94 18.785c2.385-3.675 6.15-5.823 9.688-5.823 3.604 0 5.87 1.976 8.85 1.976 2.89 0 4.65-1.979 8.817-1.979 3.15 0 6.486 1.715 8.864 4.677-7.791 4.269-6.525 15.392 1.344 18.367zM27.572 7.775c1.515-1.943 2.662-4.684 2.245-7.488-2.473.169-5.364 1.743-7.052 3.793-1.533 1.86-2.799 4.62-2.306 7.303 2.697.085 5.49-1.527 7.113-3.608z" fill="#F35183"/></svg>
